!!!COM: Bach, Johann Sebastian
!!!CDT: 1685/3//-1750/7/28/
!!!OTL@@DE: Komm, heiliger Geist, Herre Gott
!!!AGN: 4-Part Chorale
!!!SCT: BH 069
!!!SCT: BWV 226
!!!ONB: Transposed down a minor third from original BWV 226 chorale.
**harm	**root	**kern	**kern	**kern	**kern
!	!	!bass	!tenor	!alto	!soprno
*	*Iorgan	*Iorgan	*Iorgan	*Iorgan	*Iorgan
*	*	*clefF4	*clefF4	*clefG2	*clefG2
*M4/4	*M4/4	*M4/4	*M4/4	*M4/4	*M4/4
*met(c)	*met(c)	*met(c)	*met(c)	*met(c)	*met(c)
*MM60	*MM60	*MM60	*MM60	*MM60	*MM60
*k[f#c#g#d#]	*k[f#c#g#d#]	*k[f#c#g#d#]	*k[f#c#g#d#]	*k[f#c#g#d#]	*k[f#c#g#d#]
*E:	*E:	*E:	*E:	*E:	*E:
I	4GG	4E	4G#	4e	4b
=1	=1	=1	=1	=1	=1
IV	4CC	4AA	8A	4e	4cc#
.	.	.	8G#	.	.
V	4DD	4BB	4F#	4d#	8b
.	.	.	.	.	8a
vi	4EE	4C#	4E	4e	8g#
.	.	.	.	.	8a
Ib	4GG	8GG#	4E	8B	4b
.	.	8AA	.	8c#	.
=2	=2	=2	=2	=2	=2
V;	2DD;	2BB;	2B;	2d#;	2f#;
I	4GG	8E	4B	4e	4g#
.	.	8D#	.	.	.
viib/V	4CC#	4C#	4E	4e	4a#
=3	=3	=3	=3	=3	=3
V;	2DD;	2BB;	2F#;	2d#;	2b;
r	4r	4r	4r	4r	4r
Ib	4GG	4GG#	4E	4e	4b
=4	=4	=4	=4	=4	=4
IV	4CC	4AA	8A	4e	4cc#
.	.	.	8G#	.	.
V	4DD	4BB	8F#	8d#	4b
.	.	.	8E	8c#	.
V7d	8DD	8AA	8D#	4B	8f#
Ib	8GG	8GG#	8E	.	8g#
ii	4AA	4FF#	4AA	8c#	4a
.	.	.	.	8d#	.
=5	=5	=5	=5	=5	=5
Ib	4GG	8GG#	4BB	4e	4g#
.	.	8AA	.	.	.
V	4DD	4BB	8B	4d#	4f#
.	.	.	8A	.	.
I;	4GG;	4EE;	4G#;	4B;	4e;
I	4GG	4E	4G#	4B	4e
=6	=6	=6	=6	=6	=6
Vb	4DD	4D#	4F#	4B	8f#
.	.	.	.	.	8g#
IVb	4CC	8C#	8E	4c#	4a
.	.	8D#	8F#	.	.
I	4GG	4E	4G#	8B	8g#
.	.	.	.	8c#	8a
Vb	4DD	8D#	8F#	[4d#	[4b
.	.	8C#	8E	.	.
!!linebreak: 4
=7	=7	=7	=7	=7	=7
Vb	4DD	8D#	4F#	8d#]	4b]
.	.	8C#	.	8e	.
V	4DD	8BB	4B	8d#	4f#
.	.	8AA#	.	8c#	.
Ib	4GG	8GG#	4B	8B	8e
.	.	8EE	.	8G#	8d#
V/V	4AA	4FF#	8F#	4A#	4c#
.	.	.	8E	.	.
=8	=8	=8	=8	=8	=8
V;	2DD;	2BB;	2D#;	2F#;	2B;
r	4r	4r	4r	4r	4r
V	4DD	8BB	4D#	4F#	4B
.	.	8AA	.	.	.
=9	=9	=9	=9	=9	=9
Ib	8GG	8GG#	4E	8B	4e
IV	8CC	8AA	.	8c#	.
viib	4FF#	8GG#	4A	4d#	4f#
.	.	8FF#	.	.	.
I	4GG	4EE	8B	4.e	8g#
.	.	.	8A	.	8a
I	8GG	8E	8G#	.	[4b
vb	8DD	8D	8F#	8f#	.
=10	=10	=10	=10	=10	=10
V7/ii	4EE	4C#	8E#	4.g#	4b]
.	.	.	8D#y	.	.
ii	4AA	4FF#	4C#	.	4a
.	.	.	.	8f#	.
V/vi	4BB	4GG#	4BB#	8e	4g#
.	.	.	.	8d#	.
iib	4AA	4AA	4C#	4c#	4f#
=11	=11	=11	=11	=11	=11
V/vi;	2BB;	2GG#;	2D#;	2B#;	2g#;
r	4r	4r	4r	4r	4r
vi	4EE	4C#	8E	4e	8g#
.	.	.	8F#	.	8a
=12	=12	=12	=12	=12	=12
viib/V/V	4GG#	4G#	4G#	8d#	4b
.	.	.	.	8e#	.
V/V	4AA	8F#	4A#	4f#	4cc#
.	.	8E	.	.	.
Vb	4DD	8D#	4.B	8f#	4b
.	.	8C#	.	8e	.
V	4DD	4BB	.	8d#	4f#
.	.	.	8A	8c#	.
!!linebreak: 4
=13	=13	=13	=13	=13	=13
I	4GG	8E	8G#	4B	4g#
.	.	8D#	8F#	.	.
viib/V	4CC#	4C#	4E	4c#	4a#
V;	4DD;	4BB;	4F#;	4d#;	4b;
I	4GG	4E	4G#	8e	4b
.	.	.	.	8d#	.
=14	=14	=14	=14	=14	=14
IV	4CC	4AA	4A	8c#	4cc#
.	.	.	.	8d#	.
Ib	4GG	8GG#	4B	4e	4b
.	.	8AA	.	.	.
V	4DD	4BB	4B	4d#	8f#
.	.	.	.	.	8g#
IVb	4CC	8C#	8E	4c#	4a
.	.	8D#	8F#	.	.
=15	=15	=15	=15	=15	=15
I	8GG	8E	8G#	8B	4g#
IV7	8CC	8AA	8E	8c#	.
V	4DD	4BB	8B	4d#	4f#
.	.	.	8A	.	.
I;	4GG;	4EE;	4G#;	4B;	4e;
IV	4CC	8AA	4A	4c#	4e
.	.	8GG#	.	.	.
=16	=16	=16	=16	=16	=16
ii	4AA	4FF#	8A	4c#	8f#
.	.	.	8G#	.	8g#
ii	4AA	4F#	4F#	8c#	4a
.	.	.	.	8d#	.
vi	4EE	4C#	8G#	[2e	8g#
.	.	.	8F#	.	8a
Ib	4GG	8GG#	8E	.	[4b
.	.	8AA	8F#	.	.
=17	=17	=17	=17	=17	=17
I	4GG	8BB	8G#	4e]	4b]
.	.	8C#	8A#	.	.
Vb	4DD	8D#	2B	4d#	4f#
.	.	8BB	.	.	.
Ib	4GG	8G#	.	8e	8e
.	.	8E	.	[8B	8d#
V/V	4AA	4F#	8F#	8B]	4c#
.	.	.	8E	8A#	.
=18	=18	=18	=18	=18	=18
V;	2DD;	2BB;	2D#;	2F#;	2B;
r	4r	4r	4r	4r	4r
iii	4BB	4GG#	4D#	8B	4B
.	.	.	.	8A	.
!!linebreak: 4
=19	=19	=19	=19	=19	=19
vi	8EE	4C#	8E	8G#	4e
IVb	8CC	.	8A	8c#	.
Vb	4DD	4D#	8G#	8B	4f#
.	.	.	8F#	8A	.
I	2GG	8E	4.E	4.G#	8g#
.	.	8F#	.	.	8a
.	.	8G#	.	.	[4b
.	.	8F#	8F#	16A	.
.	.	.	.	16B	.
=20	=20	=20	=20	=20	=20
V7b/ii	4EE	8E#	4.G#	4c#	4b]
.	.	8C#	.	.	.
ii	4AA	4F#	.	4c#	4a
.	.	.	8F#	.	.
vi	4EE	8C#	8E	4c#	4g#
.	.	8BB	8D#	.	.
iib	4AA	8AA	4C#	8c#	4f#
.	.	8GG#	.	8B	.
=21	=21	=21	=21	=21	=21
ii7b	4AA	8AA	2F#	2A	4c#
.	.	8FF#	.	.	.
V7	4DD	4BB	.	.	4d#
I;	4GG;	4EE;	4E;	4G#;	4e;
V	4DD	4BB	4D#	4B	4f#
=22	=22	=22	=22	=22	=22
I	4GG	8EE	2.E	[2B	4g#
.	.	8FF#	.	.	.
Ib	4GG	4GG#	.	.	4e
IV	2CC	2AA	.	8B]	2c#
.	.	.	.	8G#	.
.	.	.	8E	4A	.
.	.	.	8D#	.	.
=23	=23	=23	=23	=23	=23
I;	4GG;	4E;	4E;	4G#;	4B;
Vb	4DD	4D#	2F#	2B	8f#
.	.	.	.	.	16g#
.	.	.	.	.	16a
I	4GG	8E	.	.	2g#
.	.	8D#	.	.	.
vi	4EE	8C#	[4E	[4c#	.
.	.	8BB	.	.	.
=24	=24	=24	=24	=24	=24
ii7b	4AA	8AA	4E]	4c#]	2f#
.	.	8FF#	.	.	.
V	4DD	4BB	16D#	8B	.
.	.	.	16C#	.	.
.	.	.	8D#	8A	.
I;	4GG;	4EE;	4BB;	4G#;	4e;
====	====	====	====	====	====
*-	*-	*-	*-	*-	*-
!!chor2scor: -l 4 -s 0.6 -o %b.pmx
!!!ONB1: changed line measure 6, beat 2: vi chord to a IVb chord, since 
!!!ONB2: there is no B and the C is not dissonant and does not resolve.
!!!ONB3: Now m.6, b.2 matches the analysis of m.14, b.4.
!!!YEC: Copyright 1994, David Huron
!!!YEC: Changes/Additions 2001 by Craig Stuart Sapp
!!!YEN: United States of America
!!!SMA: 371 Bach Chorales, edited by Ludwig Erk, C.F. Peters
!!!PDT: 1850, 1865
